X:565
T:Parcel of Rogues
S:Learned from Paul Tebble, Edinburgh
Z:Nigel Gatherer
M:4/4
L:1/8
K:Bm
FA|BcAF B2 c2|dBAF D2 EF|GFED E2 FA|B3 A F2:|
de|fgfe d2 cB|AFED A2 Bc|d2 cd e2 de|f3 d B2 de|
faef d2 cB|AFED d2 cB|AFED E2 FA|B3 A F2|]
